public/images/locker.svg

<svg width="24" height="24" viewBox="0 0 24 24" fill="none" xmlns="http://www.w3.org/2000/svg">
<path d="M19 3H4.99C3.88 3 3.01 3.89 3.01 5L3 19C3 20.1 3.88 21 4.99 21H19C20.1 21 21 20.1 21 19V5C21 3.89 20.1 3 19 3ZM19 15H15.87C15.4 15 15.02 15.34 14.89 15.8C14.54 17.07 13.37 18 12 18C10.63 18 9.46 17.07 9.11 15.8C8.98 15.34 8.6 15 8.13 15H5V6C5 5.45 5.45 5 6 5H18C18.55 5 19 5.45 19 6V15Z" fill="#3F4040"/>
<path d="M8 15.0002H7H5V18H18.5H19V15.0002L16 15.0002C15.6541 14.9983 15.7009 15.0033 15.5 15.3002C15.2991 15.5972 15 16 15 16L14.5 16.5C14.0733 16.841 13.6827 16.8201 13 16.8002H12H11C10.5969 16.7952 10.3781 16.743 10 16.5002L9.5 15.9002L9 15.3002C9 15.3002 8.77404 15.0131 8.5 15.0002H8Z" fill="#312ED7" stroke="#312ED7"/>
</svg>

<svg width="24" height="24" fill="none" xmlns="http://www.w3.org/2000/svg"><path d="M19 3H4.99c-1.11 0-1.98.89-1.98 2L3 19c0 1.1.88 2 1.99 2H19c1.1 0 2-.9 2-2V5a2 2 0 0 0-2-2Zm0 12h-3.13c-.47 0-.85.34-.98.8A3.006 3.006 0 0 1 12 18c-1.37 0-2.54-.93-2.89-2.2-.13-.46-.51-.8-.98-.8H5V6c0-.55.45-1 1-1h12c.55 0 1 .45 1 1v9Z" fill="#3F4040"/><path d="M8 15H5v3h14v-3h-3c-.346-.002-.3.003-.5.3s-.5.7-.5.7l-.5.5c-.427.341-.817.32-1.5.3h-2c-.403-.005-.622-.057-1-.3l-.5-.6-.5-.6s-.226-.287-.5-.3H8Z" fill="#312ED7" stroke="#312ED7"/></svg>
